X:1
T:Title
%%score 1 { 2 | 3 }
L:1/8
M:3/4
K:Ab
V:1 treble nm="Grand Piano"
V:2 bass nm="Grand Piano"
V:3 bass 
V:1
 z2 z[Q:1/4=86] [CE] [CE][CA] | [Ec]3 [Fd] [Ec][EB] | [DB]3 [CA] [DG][CA] | [EB]3 [Ed] [Ec][EB] | %4
[M:3/8] [Ec]3 | [CE][CE][CA] |[M:3/4] [Ec]3 [_Ge] [Fe][Fd] | [DF]3 [Fd] [Fc][FB] | %8
 [EA]3 [Ec] [Ec]>[DB] |[M:3/8] [CA]3 | [Ec][=Ec][EB] |[M:3/4] [FA]3 [=EG] [FA][FB] | %12
 [=Ec]3 [_Ec] [Ec][Ed] | [Ae]3 [Ec] [EA][Ec] |[M:3/8] [EB]3 | [Ed][Ec][DB] | %16
[M:3/4] [CA]3 [=EG] [FB][FA] | [DF]3 [DA] [DG][DF] | %18
 [CE]3 [CA] [Ec]>[DB][Q:1/4=85][Q:1/4=83][Q:1/4=82][Q:1/4=81][Q:1/4=80][Q:1/4=78] | %19
[M:3/8] [CA]3[Q:1/4=77][Q:1/4=76][Q:1/4=75][Q:1/4=73][Q:1/4=72][Q:1/4=71][Q:1/4=70][Q:1/4=68][Q:1/4=67][Q:1/4=66] |] %20
V:2
 z2 z A, A,E, | A,3 A, A,G, | G,3 A, B,A, | G,3 B, A,G, |[M:3/8] A,3 | A,A,E, | %6
[M:3/4] A,3 A, A,A, | A,3 B,[K:treble] ED | C3 A, G,>[K:bass]G, |[M:3/8] A,3 | A,G,C | %11
[M:3/4] C3 C CF, | G,3 A, A,B, | C3 A, A,A, |[M:3/8] G,3 | B,A,G, |[M:3/4] A,3 B, A,A, | %17
 A,3 F, G,A, | A,3 E, G,>G, |[M:3/8] A,3 |] %20
V:3
 z2 z A,, A,,A,, | A,,3 D, E,E, | E,3 E, E,E, | E,3 E, E,E, |[M:3/8] A,,3 | A,,A,,A,, | %6
[M:3/4] A,,3 C, D,D, | D,3 B,, C,D, | E,3 E, E,>E, |[M:3/8] A,,3 | A,,C,C, |[M:3/4] F,3 C, F,D, | %12
 C,3 A,, z A, | A,4 C,A,, |[M:3/8] E,3 | G, z E, |[M:3/4] F,3 C, D,D, | D,3 D, D,D, | E,4 E,>E, | %19
[M:3/8] A,,3 |] %20

